data/playwrite-nz.svg

<svg width="94.696" height="27.048" viewBox="0 0 94.696 27.048" xmlns="http://www.w3.org/2000/svg"><path transform="translate(0 19.992) scale(.014 -.014)" d="m107-14q-48 0-39 30l309 954q5 14 17 21t34 7h176q100 0 166.5-24t100-71.5 33.5-120.5q0-84-31.5-148t-90-109-140-73.5-181.5-41.5q-43-5-90-7.5t-90-3.5l-125-385q-5-14-15.5-21t-33.5-7zm199 493q27 0 58 1.5t62 4.5 59 6q106 17 179 53t111.5 92.5 38.5 134.5q0 52-23.5 84.5t-72.5 47.5-128 15h-142z"/><path transform="translate(10.878 19.992) scale(.014 -.014)" d="m121-15q-56 0-70 44.5t14 129.5l272 824q7 20 16.5 26t28.5 6q31 0 39.5-9.5t1.5-29.5l-288-873q-7-21-4.5-31.5t14.5-10.5q10 0 19 6t20 18 26 31q8 10 16 11.5t19-6.5q16-10 19.5-20t-2.5-20q-20-33-42.5-54.5t-47-31.5-51.5-10z"/><path transform="translate(15.064 19.992) scale(.014 -.014)" d="m148-17q-34 0-59.5 18t-39.5 51-14 78q0 46 14 99t42 104 68.5 93 92.5 67.5 116 25.5q28 0 60-7.5t62-21.5l1 4q5 14 15 17.5t27 3.5q31 0 39.5-9.5t1.5-29.5l-125-373q-6-18-6.5-27t3.5-12 9-3q10 0 20.5 6.5t23 19 26.5 29.5q8 10 16 11.5t19-6.5q16-10 19.5-20t-1.5-20q-9-15-29-38t-48.5-40.5-65.5-17.5-54.5 16.5-20.5 41.5 2.5 53 13.5 52q2 2 2.5 4.5t1.5 5.5q-42-59-82.5-98t-78-58-71.5-19zm-22 163q0-25 6-44t17.5-29 26.5-10q35 0 80 37.5t95.5 109.5 103.5 176l11 33q-32 13-60.5 17t-51.5 4q-43 0-79-20t-63.5-52.5-46.5-72-29-78.5-10-71z"/><path transform="translate(23.772 19.992) scale(.014 -.014)" d="m149-15q-46 0-71.5 22.5t-27.5 67 19 108.5l100 300q7 20 16.5 26t28.5 6q31 0 39.5-9.5t1.5-29.5l-106-316q-9-25-11.5-47t7-35 36.5-13q35 0 76 30t84.5 84 85.5 127.5 78 161.5l5 15q7 20 16.5 26t28.5 6q31 0 39.5-9.5t1.5-29.5l-245-750q-30-94-62-147t-77-75-114-22q-36 0-67.5 8.5t-58 23.5-47.5 32q-17 14-22 28t15 32q18 15 29 16t28-14q25-20 57-34.5t71-14.5q42 0 71 16.5t50.5 53.5 41.5 99l149 461q-31-49-63.5-87t-66-64-68-39.5-68.5-13.5z"/><path transform="translate(32.564 19.992) scale(.014 -.014)" d="m146-15q-21 0-29 8.5t-9 29.5l-12 453q0 14 8 26.5t36 12.5q22 0 31.5-8.5t9.5-31.5l3-354 240 363q12 18 25 24.5t32 6.5q17 0 29.5-10t13.5-36l11-346 231 365q11 17 22.5 22t25.5 5q28 0 38-14t-2-33l-297-457q-7-11-22-18.5t-37-7.5-30.5 8.5-8.5 29.5l-11 355-243-367q-7-10-20-18t-35-8z"/><path transform="translate(43.82 19.992) scale(.014 -.014)" d="m56-15q-16 0-30 7t-7 26l150 465q7 20 16.5 26t28.5 6q31 0 39.5-9.5t1.5-29.5l-52-160q31 48 62.5 86t62 64 58 39.5 49.5 13.5q27 0 47-13t32-31q8-11 6-22.5t-12-22.5q-11-11-21-16t-18 4q-10 8-22 14.5t-23 6.5q-26 0-64-29t-81-82-86-125.5-79-158.5l-10-33q-4-13-14.5-19.5t-33.5-6.5z"/><path transform="translate(50.176 19.992) scale(.014 -.014)" d="m119-15q-56 0-70 44.5t14 129.5l106 324q7 20 16.5 26t28.5 6q31 0 39.5-9.5t1.5-29.5l-122-373q-7-21-5-31.5t15-10.5q9 0 18 6t20.5 18 27.5 31q8 10 16 11.5t19-6.5q16-10 19.5-20t-2.5-20q-21-33-43.5-54.5t-47-31.5-51.5-10zm157 684q-20 0-34 13t-14 38q0 27 17.5 51t54.5 24q21 0 35-12.5t14-38.5q0-27-17.5-51t-55.5-24z"/><path transform="translate(54.376 19.992) scale(.014 -.014)" d="m154-15q-40 0-63 18.5t-27 55 14 89.5l88 272h-76q-11 0-15 10t1 30q6 20 16 30t21 10h80l65 198q6 20 15.5 26t29.5 6q31 0 39.5-9.5t1.5-29.5l-64-191h126q11 0 15.5-9.5t-1.5-30.5q-5-19-15-29.5t-21-10.5h-130l-98-295q-11-34-6.5-49t23.5-15q20 0 47.5 17.5t55.5 54.5q9 10 18.5 11t23.5-8q15-9 17-18.5t-2-17.5q-11-20-36-47t-61-47.5-82-20.5z"/><path transform="translate(59.808 19.992) scale(.014 -.014)" d="m221-19q-60 0-98 24.5t-56 66.5-18 92q0 60 21 122.5t61 115 98.5 85 133.5 32.5q49 0 80.5-15t47-41.5 15.5-62.5q0-42-26-75.5t-69.5-59.5-98-44.5-111.5-31-110-20.5l9 71q33 5 75 13.5t84 20 77.5 28.5 57 39.5 21.5 51.5q0 25-17 36t-45 11q-49 0-89-25t-67.5-65.5-42.5-88-15-91.5q0-32 9.5-57t30.5-38.5 54-13.5 60.5 13.5 52 36 48.5 49.5q12 14 28 10t26-15 11.5-23-10.5-27q-38-48-76.5-75t-76.5-38-75-11z"/><path transform="translate(71.372 19.992) scale(.014 -.014)" d="m102-14q-44 0-35 28l316 974q5 14 18 20.5t34 6.5q18 0 27.5-6.5t14.5-20.5l248-829 269 829q5 14 18 20.5t34 6.5q46 0 35-27l-315-974q-4-14-17.5-21t-33.5-7q-16 0-24 5t-13 23l-251 839-273-839q-4-14-17-21t-35-7z"/><path transform="translate(85.176 19.992) scale(.014 -.014)" d="m-34 0q-12 0-18 9.5t-4.5 23.5 11.5 25l777 860h-444q-11 0-15.5 9.5t1.5 30.5q5 20 15 30t21 10h548q17 0 22-20t-11-38l-778-860h493q11 0 15-9.5t-2-30.5q-5-19-15-29.5t-21-10.5z"/></svg>

<?xml version="1.0" encoding="utf-8" ?>
<svg baseProfile="tiny" height="100%" version="1.2" width="100%" xmlns="http://www.w3.org/2000/svg" xmlns:ev="http://www.w3.org/2001/xml-events" xmlns:xlink="http://www.w3.org/1999/xlink"><defs /><g><path d="M107 -14Q59 -14 68 16L377 970Q382 984 394.0 991.0Q406 998 428 998H604Q704 998 770.5 974.0Q837 950 870.5 902.5Q904 855 904 782Q904 698 872.5 634.0Q841 570 782.5 525.0Q724 480 642.5 451.5Q561 423 461 410Q418 405 371.0 402.5Q324 400 281 399L156 14Q151 0 140.5 -7.0Q130 -14 107 -14ZM306 479Q333 479 364.0 480.5Q395 482 426.0 485.0Q457 488 485 491Q591 508 664.0 544.0Q737 580 775.5 636.5Q814 693 814 771Q814 823 790.5 855.5Q767 888 718.0 903.0Q669 918 590 918H448Z" transform="translate(0.0, 72) scale(0.072, -0.072)" /><path d="M121 -15Q65 -15 51.0 29.5Q37 74 65 159L337 983Q344 1003 353.5 1009.0Q363 1015 382 1015Q413 1015 421.5 1005.5Q430 996 423 976L135 103Q128 82 130.5 71.5Q133 61 145 61Q155 61 164.0 67.0Q173 73 184.0 85.0Q195 97 210 116Q218 126 226.0 127.5Q234 129 245 121Q261 111 264.5 101.0Q268 91 262 81Q242 48 219.5 26.5Q197 5 172.5 -5.0Q148 -15 121 -15Z" transform="translate(55.943999999999996, 72) scale(0.072, -0.072)" /><path d="M148 -17Q114 -17 88.5 1.0Q63 19 49.0 52.0Q35 85 35 130Q35 176 49.0 229.0Q63 282 91.0 333.0Q119 384 159.5 426.0Q200 468 252.0 493.5Q304 519 368 519Q396 519 428.0 511.5Q460 504 490 490L491 494Q496 508 506.0 511.5Q516 515 533 515Q564 515 572.5 505.5Q581 496 574 476L449 103Q443 85 442.5 76.0Q442 67 446.0 64.0Q450 61 455 61Q465 61 475.5 67.5Q486 74 498.5 86.5Q511 99 525 116Q533 126 541.0 127.5Q549 129 560 121Q576 111 579.5 101.0Q583 91 578 81Q569 66 549.0 43.0Q529 20 500.5 2.5Q472 -15 435 -15Q398 -15 380.5 1.5Q363 18 360.0 43.0Q357 68 362.5 96.0Q368 124 376 148Q378 150 378.5 152.5Q379 155 380 158Q338 99 297.5 60.0Q257 21 219.5 2.0Q182 -17 148 -17ZM126 146Q126 121 132.0 102.0Q138 83 149.5 73.0Q161 63 176 63Q211 63 256.0 100.5Q301 138 351.5 210.0Q402 282 455 386L466 419Q434 432 405.5 436.0Q377 440 354 440Q311 440 275.0 420.0Q239 400 211.5 367.5Q184 335 165.0 295.5Q146 256 136.0 217.0Q126 178 126 146Z" transform="translate(77.472, 72) scale(0.072, -0.072)" /><path d="M149 -15Q103 -15 77.5 7.5Q52 30 50.0 74.5Q48 119 69 183L169 483Q176 503 185.5 509.0Q195 515 214 515Q245 515 253.5 505.5Q262 496 255 476L149 160Q140 135 137.5 113.0Q135 91 144.5 78.0Q154 65 181 65Q216 65 257.0 95.0Q298 125 341.5 179.0Q385 233 427.0 306.5Q469 380 505 468L510 483Q517 503 526.5 509.0Q536 515 555 515Q586 515 594.5 505.5Q603 496 596 476L351 -274Q321 -368 289.0 -421.0Q257 -474 212.0 -496.0Q167 -518 98 -518Q62 -518 30.5 -509.5Q-1 -501 -27.5 -486.0Q-54 -471 -75 -454Q-92 -440 -97.0 -426.0Q-102 -412 -82 -394Q-64 -379 -53.0 -378.0Q-42 -377 -25 -392Q0 -412 32.0 -426.5Q64 -441 103 -441Q145 -441 174.0 -424.5Q203 -408 224.5 -371.0Q246 -334 266 -272L415 189Q384 140 351.5 102.0Q319 64 285.5 38.0Q252 12 217.5 -1.5Q183 -15 149 -15Z" transform="translate(122.256, 72) scale(0.072, -0.072)" /><path d="M146 -15Q125 -15 117.0 -6.5Q109 2 108 23L96 476Q96 490 104.0 502.5Q112 515 140 515Q162 515 171.5 506.5Q181 498 181 475L184 121L424 484Q436 502 449.0 508.5Q462 515 481 515Q498 515 510.5 505.0Q523 495 524 469L535 123L766 488Q777 505 788.5 510.0Q800 515 814 515Q842 515 852.0 501.0Q862 487 850 468L553 11Q546 0 531.0 -7.5Q516 -15 494 -15Q472 -15 463.5 -6.5Q455 2 455 23L444 378L201 11Q194 1 181.0 -7.0Q168 -15 146 -15Z" transform="translate(167.47199999999998, 72) scale(0.072, -0.072)" /><path d="M56 -15Q40 -15 26.0 -8.0Q12 -1 19 18L169 483Q176 503 185.5 509.0Q195 515 214 515Q245 515 253.5 505.5Q262 496 255 476L203 316Q234 364 265.5 402.0Q297 440 327.5 466.0Q358 492 385.5 505.5Q413 519 435 519Q462 519 482.0 506.0Q502 493 514 475Q522 464 520.0 452.5Q518 441 508 430Q497 419 487.0 414.0Q477 409 469 418Q459 426 447.0 432.5Q435 439 424 439Q398 439 360.0 410.0Q322 381 279.0 328.0Q236 275 193.0 202.5Q150 130 114 44L104 11Q100 -2 89.5 -8.5Q79 -15 56 -15Z" transform="translate(225.35999999999999, 72) scale(0.072, -0.072)" /><path d="M119 -15Q63 -15 49.0 29.5Q35 74 63 159L169 483Q176 503 185.5 509.0Q195 515 214 515Q245 515 253.5 505.5Q262 496 255 476L133 103Q126 82 128.0 71.5Q130 61 143 61Q152 61 161.0 67.0Q170 73 181.5 85.0Q193 97 209 116Q217 126 225.0 127.5Q233 129 244 121Q260 111 263.5 101.0Q267 91 261 81Q240 48 217.5 26.5Q195 5 170.5 -5.0Q146 -15 119 -15ZM276 669Q256 669 242.0 682.0Q228 695 228 720Q228 747 245.5 771.0Q263 795 300 795Q321 795 335.0 782.5Q349 770 349 744Q349 717 331.5 693.0Q314 669 276 669Z" transform="translate(258.048, 72) scale(0.072, -0.072)" /><path d="M154 -15Q114 -15 91.0 3.5Q68 22 64.0 58.5Q60 95 78 148L166 420H90Q79 420 75.0 430.0Q71 440 76 460Q82 480 92.0 490.0Q102 500 113 500H193L258 698Q264 718 273.5 724.0Q283 730 303 730Q334 730 342.5 720.5Q351 711 344 691L280 500H406Q417 500 421.5 490.5Q426 481 420 460Q415 441 405.0 430.5Q395 420 384 420H254L156 125Q145 91 149.5 76.0Q154 61 173 61Q193 61 220.5 78.5Q248 96 276 133Q285 143 294.5 144.0Q304 145 318 136Q333 127 335.0 117.5Q337 108 333 100Q322 80 297.0 53.0Q272 26 236.0 5.5Q200 -15 154 -15Z" transform="translate(279.648, 72) scale(0.072, -0.072)" /><path d="M221 -19Q161 -19 123.0 5.5Q85 30 67.0 72.0Q49 114 49 164Q49 224 70.0 286.5Q91 349 131.0 401.5Q171 454 229.5 486.5Q288 519 363 519Q412 519 443.5 504.0Q475 489 490.5 462.5Q506 436 506 400Q506 358 480.0 324.5Q454 291 410.5 265.0Q367 239 312.5 220.5Q258 202 201.0 189.5Q144 177 91 169L100 240Q133 245 175.0 253.5Q217 262 259.0 273.5Q301 285 336.5 302.0Q372 319 393.5 341.5Q415 364 415 393Q415 418 398.0 429.0Q381 440 353 440Q304 440 264.0 415.0Q224 390 196.5 349.5Q169 309 154.0 261.5Q139 214 139 170Q139 138 148.5 113.0Q158 88 179.0 74.5Q200 61 233 61Q266 61 293.5 74.5Q321 88 345.5 110.5Q370 133 394 160Q406 174 422.0 170.0Q438 166 448 155Q458 144 459.5 132.0Q461 120 449 105Q411 57 372.5 30.0Q334 3 296.0 -8.0Q258 -19 221 -19Z" transform="translate(307.584, 72) scale(0.072, -0.072)" /><path d="M102 -14Q58 -14 67 14L383 988Q388 1002 401.0 1008.5Q414 1015 435 1015Q453 1015 462.5 1008.5Q472 1002 477 988L725 159L994 988Q999 1002 1012.0 1008.5Q1025 1015 1046 1015Q1092 1015 1081 988L766 14Q762 0 748.5 -7.0Q735 -14 715 -14Q699 -14 691.0 -9.0Q683 -4 678 14L427 853L154 14Q150 0 137.0 -7.0Q124 -14 102 -14Z" transform="translate(367.05600000000004, 72) scale(0.072, -0.072)" /><path d="M-34 0Q-46 0 -52.0 9.5Q-58 19 -56.5 33.0Q-55 47 -45 58L732 918H288Q277 918 272.5 927.5Q268 937 274 958Q279 978 289.0 988.0Q299 998 310 998H858Q875 998 880.0 978.0Q885 958 869 940L91 80H584Q595 80 599.0 70.5Q603 61 597 40Q592 21 582.0 10.5Q572 0 561 0Z" transform="translate(438.048, 72) scale(0.072, -0.072)" /></g></svg>
